;FLAVOR:UltiGCode
;TIME:7198
;MATERIAL:13749
;MATERIAL2:0
;NOZZLE_DIAMETER:0.4
;MINX:4.376
;MINY:20.575
;MINZ:0.3
;MAXX:115.624
;MAXY:99.425
;MAXZ:3.1
;Generated with Cura_SteamEngine 4.13.1
M82 ;absolute extrusion mode
G0 F3000 Y50 ;avoid prime blob
G92 E0
G92 E0
G10
;LAYER_COUNT:15
;LAYER:0
M107
G0 F3600 X7.85 Y20.89 Z0.3
;TYPE:SKIRT
G11
G1 F1800 X8.555 Y20.7 E0.08762
G1 X9.122 Y20.616 E0.1564
G1 X9.73 Y20.578 E0.2295
G1 X9.833 Y20.576 E0.24187
G1 X109.763 Y20.575 E12.23347
G1 X110.461 Y20.585 E12.31723
G1 X111.042 Y20.634 E12.3872
G1 X111.375 Y20.683 E12.42759
G1 X112.075 Y20.869 E12.51451
G1 X112.593 Y21.074 E12.58136
G1 X112.667 Y21.106 E12.59103
G1 X113.311 Y21.479 E12.68034
G1 X113.729 Y21.791 E12.74293
G1 X114.109 Y22.124 E12.80356
G1 X114.572 Y22.681 E12.89048
G1 X114.717 Y22.875 E12.91954
G1 X115.065 Y23.48 E13.0033
G1 X115.278 Y23.971 E13.06752
G1 X115.309 Y24.049 E13.07759
G1 X115.499 Y24.754 E13.16521
G1 X115.582 Y25.317 E13.2335
G1 X115.621 Y25.929 E13.30709
G1 X115.623 Y26.032 E13.31945
G1 X115.624 Y93.564 E21.42329
G1 X115.614 Y94.261 E21.50694
G1 X115.566 Y94.836 E21.57618
G1 X115.518 Y95.167 E21.61632
G1 X115.33 Y95.875 E21.70422
G1 X115.125 Y96.394 E21.77118
G1 X115.093 Y96.468 E21.78086
G1 X114.72 Y97.112 E21.87017
G1 X114.408 Y97.53 E21.93276
G1 X114.075 Y97.91 E21.99339
G1 X113.518 Y98.373 E22.08031
G1 X113.32 Y98.521 E22.10997
G1 X112.721 Y98.864 E22.1928
G1 X112.253 Y99.068 E22.25406
G1 X112.169 Y99.102 E22.26494
G1 X111.445 Y99.3 E22.35501
G1 X110.878 Y99.384 E22.42379
G1 X110.27 Y99.422 E22.49689
G1 X110.167 Y99.424 E22.50926
G1 X10.237 Y99.425 E34.50086
G1 X9.54 Y99.415 E34.5845
G1 X8.958 Y99.366 E34.65459
G1 X8.625 Y99.317 E34.69498
G1 X7.925 Y99.131 E34.7819
G1 X7.407 Y98.926 E34.84875
G1 X7.333 Y98.894 E34.85842
G1 X6.689 Y98.521 E34.94773
G1 X6.271 Y98.209 E35.01032
G1 X5.891 Y97.876 E35.07095
G1 X5.413 Y97.3 E35.16077
G1 X5.282 Y97.124 E35.1871
G1 X4.935 Y96.52 E35.27069
G1 X4.722 Y96.029 E35.33492
G1 X4.691 Y95.951 E35.34499
G1 X4.501 Y95.246 E35.43261
G1 X4.417 Y94.679 E35.50139
G1 X4.378 Y94.049 E35.57713
G1 X4.376 Y26.436 E43.69069
G1 X4.386 Y25.738 E43.77446
G1 X4.434 Y25.164 E43.84358
G1 X4.482 Y24.833 E43.88372
G1 X4.671 Y24.122 E43.972
G1 X4.877 Y23.601 E44.03923
G1 X4.905 Y23.536 E44.04772
G1 X5.28 Y22.888 E44.13757
G1 X5.592 Y22.47 E44.20016
G1 X5.925 Y22.09 E44.26079
G1 X6.482 Y21.627 E44.34771
G1 X6.68 Y21.479 E44.37737
G1 X7.276 Y21.137 E44.45983
G1 X7.772 Y20.921 E44.52475
G1 X7.85 Y20.89 E44.53482
G10
;MESH:Raspi7inch_Lid v2.stl
G0 F3600 X11.559 Y27.42
G0 X10.634 Y25.815
G0 X9.857 Y27.645
G0 X9.857 Y28.805
G0 X10.439 Y29.812
G0 X11.431 Y30.451
G11
G0 X11.456 Y30.355
;TYPE:WALL-INNER
G1 F1800 X12.026 Y30.431 E44.60383
G1 X12.596 Y30.355 E44.67283
G1 X13.129 Y30.136 E44.74198
G1 X13.585 Y29.784 E44.81111
G1 X13.937 Y29.328 E44.88023
G1 X14.156 Y28.795 E44.94938
G1 X14.232 Y28.225 E45.01839
G1 X14.156 Y27.655 E45.08739
G1 X13.937 Y27.122 E45.15654
G1 X13.585 Y26.666 E45.22567
G1 X13.129 Y26.314 E45.29479
G1 X12.596 Y26.095 E45.36394
G1 X12.026 Y26.019 E45.43295
G1 X11.456 Y26.095 E45.50195
G1 X10.923 Y26.314 E45.5711
G1 X10.467 Y26.666 E45.64023
G1 X10.116 Y27.122 E45.70928
G1 X9.895 Y27.655 E45.77852
G1 X9.821 Y28.225 E45.8475
G1 X9.895 Y28.795 E45.91647
G1 X10.116 Y29.328 E45.98571
G1 X10.467 Y29.784 E46.05476
G1 X10.923 Y30.136 E46.12389
G1 X11.456 Y30.355 E46.19304
G10
G0 F3600 X11.431 Y30.451
G0 X13.992 Y30.191
G0 X12.684 Y28.883
G0 X37.172 Y38.165
G0 X37.172 Y36.35
G0 X35.555 Y36.83
G11
G0 X35.625 Y36.9
G1 F1800 X35.625 Y83.1 E51.73704
G1 X39.275 Y83.1 E52.17504
G1 X39.275 Y36.9 E57.71904
G1 X35.625 Y36.9 E58.15704
G10
G0 F3600 X35.555 Y36.83
G0 X39.845 Y36.83
G11
G0 X40.625 Y36.9
G1 F1800 X40.625 Y83.1 E63.70104
G1 X44.275 Y83.1 E64.13904
G1 X44.275 Y36.9 E69.68304
G1 X40.625 Y36.9 E70.12104
G10
G0 F3600 X40.555 Y36.83
G0 X44.845 Y36.83
G11
G0 X45.625 Y36.9
G1 F1800 X45.625 Y83.1 E75.66504
G1 X49.275 Y83.1 E76.10304
G1 X49.275 Y36.9 E81.64704
G1 X45.625 Y36.9 E82.08504
G10
G0 F3600 X45.555 Y36.83
G0 X49.845 Y36.83
G0 X52.605 Y36.83
G11
G0 X53.175 Y36.9
G1 F1800 X53.175 Y83.1 E87.62904
G1 X56.825 Y83.1 E88.06704
G1 X56.825 Y36.9 E93.61104
G1 X53.175 Y36.9 E94.04904
G10
G0 F3600 X53.105 Y36.83
G0 X57.395 Y36.83
G11
G0 X58.175 Y36.9
G1 F1800 X58.175 Y83.1 E99.59304
G1 X61.825 Y83.1 E100.03104
G1 X61.825 Y36.9 E105.57504
G1 X58.175 Y36.9 E106.01304
G10
G0 F3600 X58.105 Y36.83
G0 X62.395 Y36.83
G11
G0 X63.175 Y36.9
G1 F1800 X63.175 Y83.1 E111.55704
G1 X66.825 Y83.1 E111.99504
G1 X66.825 Y36.9 E117.53904
G1 X63.175 Y36.9 E117.97704
G10
G0 F3600 X63.105 Y36.83
G0 X67.395 Y36.83
G0 X70.155 Y36.83
G11
G0 X70.725 Y36.9
G1 F1800 X70.725 Y83.1 E123.52104
G1 X74.375 Y83.1 E123.95904
G1 X74.375 Y36.9 E129.50304
G1 X70.725 Y36.9 E129.94104
G10
G0 F3600 X70.655 Y36.83
G0 X74.945 Y36.83
G11
G0 X75.725 Y36.9
G1 F1800 X75.725 Y83.1 E135.48504
G1 X79.375 Y83.1 E135.92304
G1 X79.375 Y36.9 E141.46704
G1 X75.725 Y36.9 E141.90504
G10
G0 F3600 X75.655 Y36.83
G0 X79.945 Y36.83
G11
G0 X80.725 Y36.9
G1 F1800 X80.725 Y83.1 E147.44904
G1 X84.375 Y83.1 E147.88704
G1 X84.375 Y36.9 E153.43104
G1 X80.725 Y36.9 E153.86904
G10
G0 F3600 X80.655 Y36.83
G0 X82.272 Y36.35
G0 X82.272 Y38.165
G0 X86.732 Y29.123
G0 X86.256 Y30.911
G11
G0 X86.404 Y30.355
G1 F1800 X86.974 Y30.431 E153.93804
G1 X87.544 Y30.355 E154.00705
G1 X88.077 Y30.136 E154.0762
G1 X88.533 Y29.784 E154.14532
G1 X88.885 Y29.328 E154.21445
G1 X89.104 Y28.795 E154.2836
G1 X89.18 Y28.225 E154.3526
G1 X89.104 Y27.655 E154.42161
G1 X88.885 Y27.122 E154.49076
G1 X88.533 Y26.666 E154.55989
G1 X88.077 Y26.314 E154.62901
G1 X87.544 Y26.095 E154.69816
G1 X86.974 Y26.019 E154.76717
G1 X86.404 Y26.095 E154.83617
G1 X85.871 Y26.314 E154.90532
G1 X85.415 Y26.666 E154.97445
G1 X85.064 Y27.122 E155.0435
G1 X84.843 Y27.655 E155.11274
G1 X84.769 Y28.225 E155.18171
G1 X84.843 Y28.795 E155.25069
G1 X85.064 Y29.328 E155.31993
G1 X85.415 Y29.784 E155.38898
G1 X85.871 Y30.136 E155.45811
G1 X86.404 Y30.355 E155.52726
G10
G0 F3600 X86.379 Y30.451
G0 X87.692 Y30.911
G0 X87.216 Y29.123
G0 X107.507 Y90.97
G0 X106.582 Y89.365
G0 X105.806 Y91.195
G0 X105.806 Y92.355
G0 X106.387 Y93.362
G0 X107.379 Y94.001
G11
G0 X107.404 Y93.905
G1 F1800 X107.974 Y93.981 E155.59626
G1 X108.544 Y93.905 E155.66527
G1 X109.077 Y93.686 E155.73442
G1 X109.533 Y93.334 E155.80354
G1 X109.885 Y92.878 E155.87267
G1 X110.104 Y92.345 E155.94182
G1 X110.18 Y91.775 E156.01082
G1 X110.104 Y91.205 E156.07983
G1 X109.885 Y90.672 E156.14898
G1 X109.533 Y90.216 E156.2181
G1 X109.077 Y89.864 E156.28723
G1 X108.544 Y89.645 E156.35638
G1 X107.974 Y89.569 E156.42538
G1 X107.404 Y89.645 E156.49439
G1 X106.871 Y89.864 E156.56354
G1 X106.415 Y90.216 E156.63266
G1 X106.063 Y90.672 E156.70179
G1 X105.844 Y91.205 E156.77094
G1 X105.768 Y91.775 E156.83995
G1 X105.844 Y92.345 E156.90895
G1 X106.063 Y92.878 E156.9781
G1 X106.415 Y93.334 E157.04723
G1 X106.871 Y93.686 E157.11635
G1 X107.404 Y93.905 E157.1855
G10
G0 F3600 X107.379 Y94.001
G0 X109.366 Y94.185
G0 X109.366 Y95.035
G0 X110.378 Y95.526
G11
G0 X110.384 Y95.625
G1 F1800 X9.616 Y95.625 E169.27766
G1 X9.214 Y95.572 E169.32632
G1 X8.881 Y95.434 E169.36957
G1 X8.59 Y95.211 E169.41357
G1 X8.367 Y94.92 E169.45756
G1 X8.229 Y94.587 E169.50082
G1 X8.176 Y94.185 E169.54948
G1 X8.176 Y25.815 E177.75388
G1 X8.229 Y25.413 E177.80253
G1 X8.367 Y25.08 E177.84579
G1 X8.59 Y24.789 E177.88978
G1 X8.881 Y24.566 E177.93378
G1 X9.214 Y24.428 E177.97703
G1 X9.616 Y24.375 E178.02569
G1 X110.384 Y24.375 E190.11785
G1 X110.786 Y24.428 E190.16651
G1 X111.119 Y24.566 E190.20976
G1 X111.41 Y24.789 E190.25376
G1 X111.633 Y25.08 E190.29775
G1 X111.771 Y25.413 E190.34101
G1 X111.824 Y25.815 E190.38966
G1 X111.824 Y94.185 E198.59406
G1 X111.771 Y94.587 E198.64272
G1 X111.633 Y94.92 E198.68598
G1 X111.41 Y95.211 E198.72997
G1 X111.119 Y95.434 E198.77397
G1 X110.786 Y95.572 E198.81722
G1 X110.384 Y95.625 E198.86588
G10
G0 F3600 X110.378 Y95.526
G0 X11.431 Y95.035
G0 X11.431 Y94.001
G11
G0 X11.456 Y93.905
G1 F1800 X12.026 Y93.981 E198.93488
G1 X12.596 Y93.905 E199.00389
G1 X13.129 Y93.686 E199.07304
G1 X13.585 Y93.334 E199.14216
G1 X13.937 Y92.878 E199.21129
G1 X14.156 Y92.345 E199.28044
G1 X14.232 Y91.775 E199.34945
G1 X14.156 Y91.205 E199.41845
G1 X13.937 Y90.672 E199.4876
G1 X13.585 Y90.216 E199.55673
G1 X13.129 Y89.864 E199.62585
G1 X12.596 Y89.645 E199.695
G1 X12.026 Y89.569 E199.76401
G1 X11.456 Y89.645 E199.83301
G1 X10.923 Y89.864 E199.90216
G1 X10.467 Y90.216 E199.97129
G1 X10.116 Y90.672 E200.04034
G1 X9.895 Y91.205 E200.10958
G1 X9.821 Y91.775 E200.17855
G1 X9.895 Y92.345 E200.24753
G1 X10.116 Y92.878 E200.31677
G1 X10.467 Y93.334 E200.38582
G1 X10.923 Y93.686 E200.45495
G1 X11.456 Y93.905 E200.5241
G0 F3600 X11.56 Y93.515
;TYPE:WALL-OUTER
G1 F1800 X12.026 Y93.577 E200.58051
G1 X12.492 Y93.515 E200.63692
G1 X12.927 Y93.336 E200.69337
G1 X13.3 Y93.049 E200.74985
G1 X13.587 Y92.676 E200.80632
G1 X13.766 Y92.241 E200.86277
G1 X13.828 Y91.775 E200.91918
G1 X13.766 Y91.309 E200.97559
G1 X13.587 Y90.874 E201.03204
G1 X13.3 Y90.501 E201.08852
G1 X12.927 Y90.214 E201.14499
G1 X12.492 Y90.035 E201.20144
G1 X12.026 Y89.973 E201.25785
G1 X11.56 Y90.035 E201.31427
G1 X11.125 Y90.214 E201.37071
G1 X10.752 Y90.501 E201.42719
G1 X10.465 Y90.874 E201.48367
G1 X10.285 Y91.309 E201.54016
G1 X10.224 Y91.775 E201.59655
G1 X10.285 Y92.241 E201.65295
G1 X10.465 Y92.676 E201.70944
G1 X10.752 Y93.049 E201.76592
G1 X11.125 Y93.336 E201.8224
G1 X11.56 Y93.515 E201.87884
G0 F3600 X11.758 Y93.541
G10
G0 X11.692 Y94.037
G0 X12.606 Y93.943
G0 X13.613 Y93.362
G0 X14.194 Y92.355
G0 X14.209 Y91.306
G0 X13.418 Y89.365
G0 X12.493 Y90.97
G0 X36.89 Y38.813
G0 X35.075 Y38.813
G0 X35.597 Y36.872
G11
G0 X36.025 Y37.3
G1 F1800 X36.025 Y82.7 E207.32684
G1 X38.875 Y82.7 E207.66884
G1 X38.875 Y37.3 E213.11684
G1 X36.025 Y37.3 E213.45884
G0 F3600 X36.025 Y37.5
G10
G0 X35.525 Y37.5
G0 X39.845 Y36.8
G0 X41.025 Y36.8
G11
G0 X41.025 Y37.3
G1 F1800 X41.025 Y82.7 E218.90684
G1 X43.875 Y82.7 E219.24884
G1 X43.875 Y37.3 E224.69684
G1 X41.025 Y37.3 E225.03884
G0 F3600 X41.025 Y37.5
G10
G0 X40.525 Y37.5
G0 X44.845 Y36.8
G0 X46.025 Y36.8
G11
G0 X46.025 Y37.3
G1 F1800 X46.025 Y82.7 E230.48684
G1 X48.875 Y82.7 E230.82884
G1 X48.875 Y37.3 E236.27684
G1 X46.025 Y37.3 E236.61884
G0 F3600 X46.025 Y37.5
G10
G0 X45.525 Y37.5
G0 X49.845 Y36.8
G0 X52.605 Y36.8
G0 X53.575 Y36.8
G11
G0 X53.575 Y37.3
G1 F1800 X53.575 Y82.7 E242.06684
G1 X56.425 Y82.7 E242.40884
G1 X56.425 Y37.3 E247.85684
G1 X53.575 Y37.3 E248.19884
G0 F3600 X53.575 Y37.5
G10
G0 X53.075 Y37.5
G0 X57.395 Y36.8
G0 X58.575 Y36.8
G11
G0 X58.575 Y37.3
G1 F1800 X58.575 Y82.7 E253.64684
G1 X61.425 Y82.7 E253.98884
G1 X61.425 Y37.3 E259.43684
G1 X58.575 Y37.3 E259.77884
G0 F3600 X58.575 Y37.5
G10
G0 X58.075 Y37.5
G0 X62.395 Y36.8
G0 X63.575 Y36.8
G11
G0 X63.575 Y37.3
G1 F1800 X63.575 Y82.7 E265.22684
G1 X66.425 Y82.7 E265.56884
G1 X66.425 Y37.3 E271.01684
G1 X63.575 Y37.3 E271.35884
G0 F3600 X63.575 Y37.5
G10
G0 X63.075 Y37.5
G0 X67.395 Y36.8
G0 X70.155 Y36.8
G0 X71.125 Y36.8
G11
G0 X71.125 Y37.3
G1 F1800 X71.125 Y82.7 E276.80684
G1 X73.975 Y82.7 E277.14884
G1 X73.975 Y37.3 E282.59684
G1 X71.125 Y37.3 E282.93884
G0 F3600 X71.125 Y37.5
G10
G0 X70.625 Y37.5
G0 X74.945 Y36.8
G0 X76.125 Y36.8
G11
G0 X76.125 Y37.3
G1 F1800 X76.125 Y82.7 E288.38684
G1 X78.975 Y82.7 E288.72884
G1 X78.975 Y37.3 E294.17684
G1 X76.125 Y37.3 E294.51884
G0 F3600 X76.125 Y37.5
G10
G0 X75.625 Y37.5
G0 X79.945 Y36.8
G0 X81.125 Y36.8
G11
G0 X81.125 Y37.3
G1 F1800 X81.125 Y82.7 E299.96684
G1 X83.975 Y82.7 E300.30884
G1 X83.975 Y37.3 E305.75684
G1 X81.125 Y37.3 E306.09884
G0 F3600 X81.125 Y37.5
G10
G0 X80.625 Y37.5
G0 X82.272 Y36.35
G0 X82.272 Y38.165
G0 X86.732 Y29.123
G0 X86.256 Y30.911
G11
G0 X86.508 Y29.965
G1 F1800 X86.974 Y30.027 E306.15526
G1 X87.44 Y29.965 E306.21167
G1 X87.875 Y29.786 E306.26812
G1 X88.248 Y29.499 E306.32459
G1 X88.535 Y29.126 E306.38107
G1 X88.714 Y28.691 E306.43751
G1 X88.776 Y28.225 E306.49393
G1 X88.714 Y27.759 E306.55034
G1 X88.535 Y27.324 E306.60679
G1 X88.248 Y26.951 E306.66326
G1 X87.875 Y26.664 E306.71974
G1 X87.44 Y26.485 E306.77619
G1 X86.974 Y26.423 E306.8326
G1 X86.508 Y26.485 E306.88901
G1 X86.073 Y26.664 E306.94546
G1 X85.7 Y26.951 E307.00193
G1 X85.413 Y27.324 E307.05841
G1 X85.233 Y27.759 E307.1149
G1 X85.172 Y28.225 E307.1713
G1 X85.233 Y28.691 E307.2277
G1 X85.413 Y29.126 E307.28419
G1 X85.7 Y29.499 E307.34067
G1 X86.073 Y29.786 E307.39714
G1 X86.508 Y29.965 E307.45359
G0 F3600 X86.706 Y29.991
G10
G0 X86.64 Y30.487
G0 X87.692 Y30.911
G0 X87.216 Y29.123
G0 X107.507 Y90.97
G0 X106.582 Y89.365
G0 X105.806 Y91.195
G0 X105.806 Y92.355
G0 X106.387 Y93.362
G0 X107.442 Y94.01
G11
G0 X107.508 Y93.515
G1 F1800 X107.974 Y93.577 E307.51
G1 X108.44 Y93.515 E307.56642
G1 X108.875 Y93.336 E307.62286
G1 X109.248 Y93.049 E307.67934
G1 X109.535 Y92.676 E307.73581
G1 X109.714 Y92.241 E307.79226
G1 X109.776 Y91.775 E307.84867
G1 X109.714 Y91.309 E307.90509
G1 X109.535 Y90.874 E307.96153
G1 X109.248 Y90.501 E308.01801
G1 X108.875 Y90.214 E308.07449
G1 X108.44 Y90.035 E308.13093
G1 X107.974 Y89.973 E308.18735
G1 X107.508 Y90.035 E308.24376
G1 X107.073 Y90.214 E308.3002
G1 X106.7 Y90.501 E308.35668
G1 X106.413 Y90.874 E308.41316
G1 X106.234 Y91.309 E308.4696
G1 X106.172 Y91.775 E308.52602
G1 X106.234 Y92.241 E308.58243
G1 X106.413 Y92.676 E308.63888
G1 X106.7 Y93.049 E308.69535
G1 X107.073 Y93.336 E308.75183
G1 X107.508 Y93.515 E308.80828
G0 F3600 X107.706 Y93.541
G10
G0 X107.64 Y94.037
G0 X109.366 Y94.185
G0 X109.366 Y95.035
G0 X110.378 Y95.526
G11
G0 X110.413 Y96.025
G1 F1800 X9.587 Y96.025 E320.9074
G1 X9.113 Y95.963 E320.96476
G1 X8.677 Y95.782 E321.02141
G1 X8.305 Y95.496 E321.07772
G1 X8.019 Y95.124 E321.13403
G1 X7.838 Y94.688 E321.19067
G1 X7.776 Y94.214 E321.24804
G1 X7.776 Y25.786 E329.4594
G1 X7.838 Y25.312 E329.51676
G1 X8.019 Y24.876 E329.57341
G1 X8.305 Y24.504 E329.62972
G1 X8.677 Y24.218 E329.68603
G1 X9.113 Y24.037 E329.74268
G1 X9.587 Y23.975 E329.80004
G1 X110.413 Y23.975 E341.89916
G1 X110.887 Y24.037 E341.95653
G1 X111.323 Y24.218 E342.01318
G1 X111.695 Y24.504 E342.06948
G1 X111.981 Y24.876 E342.12579
G1 X112.162 Y25.312 E342.18244
G1 X112.224 Y25.786 E342.23981
G1 X112.224 Y94.214 E350.45117
G1 X112.162 Y94.688 E350.50853
G1 X111.981 Y95.124 E350.56518
G1 X111.695 Y95.496 E350.62149
G1 X111.323 Y95.782 E350.6778
G1 X110.887 Y95.963 E350.73445
G1 X110.413 Y96.025 E350.79181
G0 F3600 X110.213 Y96.025
G10
G0 X110.213 Y95.525
G0 X107.95 Y95.075
G0 X107.95 Y96.89
G0 X83.183 Y79.4
G0 X83.122 Y81.847
G0 X81.978 Y81.847
G0 X81.916 Y78.506
G0 X78.182 Y75.869
G0 X78.122 Y81.847
G0 X76.978 Y81.847
G0 X76.916 Y74.976
G0 X73.182 Y72.339
G0 X73.122 Y81.847
G0 X71.978 Y81.847
G0 X71.916 Y71.445
G0 X65.632 Y67.007
G0 X65.572 Y81.847
G0 X64.428 Y81.847
G0 X64.366 Y66.113
G0 X60.632 Y63.477
G0 X60.572 Y81.847
G0 X59.428 Y81.847
G0 X59.366 Y62.583
G0 X55.632 Y59.946
G0 X55.572 Y38.153
G0 X54.428 Y38.153
G0 X54.367 Y59.052
G0 X48.083 Y54.615
G0 X48.022 Y38.153
G0 X46.878 Y38.153
G0 X46.816 Y53.721
G0 X43.083 Y51.084
G0 X43.022 Y38.153
G0 X41.878 Y38.153
G0 X41.816 Y50.19
G0 X38.082 Y47.553
G0 X38.022 Y38.153
G0 X36.878 Y38.153
G0 X36.816 Y46.659
G0 X12.026 Y29.154
G0 X12.026 Y31.007
G11
G0 X11.56 Y29.965
G1 F1800 X12.026 Y30.027 E350.84822
G1 X12.492 Y29.965 E350.90464
G1 X12.927 Y29.786 E350.96108
G1 X13.3 Y29.499 E351.01756
G1 X13.587 Y29.126 E351.07403
G1 X13.766 Y28.691 E351.13048
G1 X13.828 Y28.225 E351.18689
G1 X13.766 Y27.759 E351.24331
G1 X13.587 Y27.324 E351.29975
G1 X13.3 Y26.951 E351.35623
G1 X12.927 Y26.664 E351.41271
G1 X12.492 Y26.485 E351.46915
G1 X12.026 Y26.423 E351.52557
G1 X11.56 Y26.485 E351.58198
G1 X11.125 Y26.664 E351.63843
G1 X10.752 Y26.951 E351.6949
G1 X10.465 Y27.324 E351.75138
G1 X10.285 Y27.759 E351.80787
G1 X10.224 Y28.225 E351.86427
G1 X10.285 Y28.691 E351.92066
G1 X10.465 Y29.126 E351.97716
G1 X10.752 Y29.499 E352.03363
G1 X11.125 Y29.786 E352.09011
G1 X11.56 Y29.965 E352.14656
G0 F3600 X11.758 Y29.991
G0 X11.355 Y30.735
;TYPE:SKIN
